!!!ONB: MCCC : IJH0445_02 : Extracted Monophonic Melody
!!!COM: Haydn, Joseph
!!!OPR: String Quartet in E-flat major
!!!OMV: 2
!!!SCT: Hob.III:31 ; Op.20 No.1
!!!ODT: 1772///
**kern
*thru
*k[b-e-a-]
*E-:
*clefG
*M3/4
8.e-
16g
=1
4b-
4b-
4ee-
=2
4dd
4b-
8.b-
16dd
=3
4ee-
4ee-
4gg
=4
2aa-
4A-
=5
4G
4A-
4B-
=6
4c
4d
4e-
=7
2f
8.d
16B-
=8
4e-
4r
8.g
16e-
=9
4b-
4b-
8.ee-
16a
=10
4b-
4b-
8.g
16e-
=11
4b-
4b-
8.ee-
16a
=12
4b-
4b-
8.b-
16dd-
=13
4ff
4ff
4bb-
=14
4aa
4ff
8.b-
16dd-
=15
4ff
4ff
4ddd-
=16
2ccc
8.b-
16dd
=17
4ff
4ff
4bb-
=18
4gg
4ee-
4cc
=19
2b-
8.cc
16a
=20
2.b-
=21
2.b-
=22
2.b-
=23
2.b-[
=24
8.b-]
16B-
8.c
16d
8.e-
16g
=25
4b-
4b-
4ee-
=26
4dd
4b-
8.b-
16dd
=27
4ee-
4ee-
4gg
=28
2aa-
4A-
=29
4G
4A-
4B-
=30
4c
4d
4e-
=31
2f
8.d
16B-
=32
4e-
4r
8.e-
16g
=33
4b-
4b-
4ee-
=34
4dd
4b-
8.b-
16dd
=35
4ee-
4ee-
4gg
=36
2.aa[
=37
4aa]
4gg-
4gg-
=38
4gg-
4ff
4ee-
=39
2ee-
8ff
8dd
=40
4ee-
4r
8.b-
16g
=41
4cc
4cc
8.a-
16f
=42
4b-
4b-
8.g
16e-
=43
4f
4f
8.d
16B-
=44
4e-
2r
=45
4r
8ee-
8ccc
8bb-
8aa-
=46
2aa-
4gg[
=47
4gg]
4aa-
4gg-[
=48
4gg-]
4ff
4ff[
=49
4ff]
4ee-
4dd-
=50
2.dd-
=51
4cc
4cc
4dd
=52
4ee-
4ee-
4ee-
=53
4ff
4ff
8ff
8gg
=54
4ee-
2r
=55
4r
4g
4g[
=56
4g]
4a-
4a-
=57
4r
4a
4a[
=58
4a]
4b-
4b-[
=59
4b-]
4b
4b[
=60
4b]
4cc
4cc
=61
2cc
8.f
16a-
=62
4cc
4cc
4ff
=63
4ee
4cc
8.cc
16ee
=64
4ff
4ff
4aa-
=65
4bb-
2r
=66
2.r
==
*-
